lib/preview/nrk-logo-preview-nrk-3-on-light.svg

<svg width="47" height="24" viewBox="0 0 47 24" fill="none" xmlns="http://www.w3.org/2000/svg">
<path d="M-3.05176e-05 17.9971V5.99824H3.93716V17.9971H-3.05176e-05ZM9.29378 7.90793L11.558 17.9971H7.24914L4.54546 5.99824H6.96215C7.51632 5.99104 8.05403 6.1864 8.47447 6.54754C8.89559 6.89353 9.18492 7.37384 9.29378 7.90793ZM12.1495 17.9971V5.99824H16.0867V17.9971H12.1495ZM19.0604 10.5612C18.6362 10.5654 18.2187 10.4544 17.8525 10.2401C17.4912 10.0313 17.1911 9.73111 16.9822 9.36975C16.7677 9.00348 16.6567 8.58591 16.6609 8.16146C16.6561 7.73961 16.7672 7.32453 16.9822 6.96157C17.1933 6.60414 17.4931 6.30724 17.8525 6.09967C18.2188 5.88565 18.6362 5.77466 19.0604 5.77853C19.4822 5.77399 19.8971 5.88508 20.2602 6.09967C20.616 6.30906 20.9126 6.60571 21.122 6.96157C21.3368 7.32463 21.4479 7.73964 21.4433 8.16146C21.4472 8.58587 21.3362 9.00337 21.122 9.36975C20.9148 9.72952 20.6179 10.0294 20.2602 10.2401C19.8971 10.4551 19.4819 10.5662 19.0599 10.5612H19.0604ZM22.0516 17.9971V5.99824H25.9891V17.9971H22.0516ZM30.9737 12.5554C30.9848 12.567 31.0692 12.705 31.2271 12.9694C31.385 13.2338 31.5906 13.5718 31.8439 13.9834C32.0974 14.3949 32.3649 14.8314 32.6463 15.2931C32.9277 15.7549 33.1926 16.1915 33.4408 16.6029C33.6881 17.0143 33.9697 17.4791 34.2857 17.9971H29.9598C29.6893 17.5578 29.4441 17.1606 29.2244 16.8057C29.0048 16.4508 28.7713 16.0677 28.5238 15.6565C28.2758 15.2456 28.0306 14.8457 27.7882 14.4566C27.5458 14.0675 27.3375 13.7268 27.1632 13.4342C26.9882 13.1415 26.867 12.9443 26.7996 12.8427C26.6325 12.5906 26.5336 12.2994 26.5126 11.9977C26.5294 11.7081 26.6226 11.4281 26.7827 11.1863C26.8503 11.0736 26.9743 10.8736 27.1545 10.5863C27.3347 10.299 27.546 9.9582 27.7882 9.56387C28.0304 9.16954 28.2756 8.76675 28.5238 8.35552C28.772 7.94429 29.0055 7.55838 29.2244 7.19785C29.4445 6.8377 29.6896 6.43773 29.9598 5.99796H34.2857L30.9396 11.4566C30.8361 11.6187 30.7777 11.8055 30.7706 11.9977C30.7817 12.1995 30.8522 12.3935 30.9731 12.5554H30.9737Z" fill="#0A2343"/>
<path d="M45.9701 13.5011C45.8531 13.1638 45.6693 12.8535 45.4297 12.5887C45.1806 12.3208 44.8784 12.1079 44.5423 11.9635C44.1574 11.798 43.7504 11.6898 43.3341 11.6424V11.5917C43.8395 11.431 44.3098 11.1759 44.72 10.8398C45.0858 10.5397 45.3874 10.169 45.6068 9.74989C45.8147 9.34782 45.9221 8.90139 45.9198 8.44878C45.9275 8.06463 45.8404 7.68449 45.6662 7.342C45.4882 7.01062 45.2334 6.72671 44.9231 6.51403C44.5621 6.26838 44.1577 6.09349 43.7315 5.99865C43.2077 5.87986 42.6718 5.82315 42.1347 5.82968C41.7814 5.83078 41.4285 5.85619 41.0786 5.90573C40.7167 5.95573 40.3584 6.02909 40.0059 6.12539C39.6667 6.21723 39.3381 6.34468 39.0256 6.50559L39.2621 7.84048C39.5099 7.7391 39.7494 7.6518 39.9805 7.57858C40.2117 7.50535 40.4341 7.44621 40.6478 7.40115C40.8618 7.35647 41.0703 7.32266 41.2732 7.29975C41.4696 7.27758 41.667 7.2663 41.8646 7.26596C42.2222 7.26005 42.5794 7.29407 42.9294 7.36736C43.183 7.41835 43.4241 7.51883 43.6388 7.66306C43.8141 7.78645 43.9516 7.9561 44.036 8.15308C44.1254 8.37582 44.1686 8.61439 44.163 8.85432C44.1678 9.18391 44.0893 9.50937 43.9348 9.80058C43.7778 10.0877 43.5584 10.336 43.2927 10.5272C42.9933 10.7413 42.6588 10.9014 42.3042 11.0003C41.8921 11.1171 41.4653 11.174 41.0369 11.1693H40.7156L40.5131 12.4873H41.0538C41.5524 12.4805 42.0505 12.523 42.5408 12.614C42.9078 12.6796 43.2598 12.8113 43.5797 13.0026C43.8415 13.1621 44.0548 13.3899 44.1967 13.6617C44.3378 13.9537 44.4072 14.2752 44.3992 14.5995C44.4082 14.9275 44.3447 15.2535 44.2134 15.5542C44.0879 15.8211 43.8922 16.0488 43.6473 16.2132C43.3546 16.404 43.0276 16.536 42.6844 16.6018C42.2311 16.6925 41.7695 16.735 41.3073 16.7285C41.1383 16.7285 40.972 16.7229 40.8085 16.7116C40.645 16.7004 40.4732 16.6835 40.2932 16.661C40.1131 16.6384 39.9245 16.6074 39.7274 16.568C39.5303 16.5286 39.3134 16.4807 39.0768 16.4244L38.8571 17.8607C39.1046 17.9057 39.344 17.948 39.5753 17.9874C39.8066 18.0268 40.0346 18.0606 40.2594 18.0888C40.4847 18.1166 40.7044 18.1363 40.9187 18.1479C41.1329 18.1596 41.3413 18.1652 41.5439 18.1648C42.0823 18.169 42.6199 18.1209 43.1491 18.0212C43.5988 17.9372 44.0341 17.7893 44.4418 17.5819C44.7977 17.4013 45.1181 17.158 45.3877 16.8637C45.6419 16.5812 45.8372 16.2509 45.9622 15.8921C46.0965 15.4978 46.1623 15.0835 46.1569 14.6671C46.1618 14.2706 46.0986 13.8762 45.9701 13.5011Z" fill="#0C551F"/>
</svg>

<svg xmlns="http://www.w3.org/2000/svg" viewBox="0 0 47 24"><path fill="#0A2343" d="M0 17.997V5.998h3.937v12H0Zm9.294-10.09 2.264 10.09H7.249L4.545 5.998h2.417a2.276 2.276 0 0 1 1.512.55c.422.346.71.826.82 1.36Zm2.855 10.09V5.998h3.938v12h-3.938Zm6.911-7.436a2.382 2.382 0 0 1-2.4-2.4 2.303 2.303 0 0 1 .322-1.2A2.412 2.412 0 0 1 20.26 6.1c.356.21.653.506.862.862.215.363.326.778.321 1.2a2.4 2.4 0 0 1-1.183 2.079 2.302 2.302 0 0 1-1.2.32Zm2.992 7.436V5.998h3.937v12h-3.937Zm8.922-5.442c.01.012.095.15.253.414.158.265.364.603.617 1.014a322.716 322.716 0 0 1 1.597 2.62c.247.411.529.876.845 1.394H29.96c-.27-.44-.516-.836-.736-1.191-.22-.355-.453-.738-.7-1.15-.248-.41-.493-.81-.736-1.2-.242-.388-.45-.73-.625-1.022a18.04 18.04 0 0 0-.363-.591 1.75 1.75 0 0 1-.287-.845c.016-.29.11-.57.27-.812.067-.112.191-.312.371-.6a182.106 182.106 0 0 0 1.37-2.23l.7-1.158.736-1.2h4.326l-3.346 5.459a1.08 1.08 0 0 0-.17.54c.012.203.082.396.203.558Z"/><path fill="#0C551F" d="M45.97 13.501a2.658 2.658 0 0 0-.54-.912 2.628 2.628 0 0 0-.888-.626 4.286 4.286 0 0 0-1.208-.32v-.051a4.19 4.19 0 0 0 1.386-.752c.366-.3.667-.671.887-1.09.208-.402.315-.849.313-1.301a2.338 2.338 0 0 0-.254-1.107 2.355 2.355 0 0 0-.743-.828 3.45 3.45 0 0 0-1.192-.515 6.843 6.843 0 0 0-1.596-.17 7.705 7.705 0 0 0-1.056.077c-.362.05-.72.123-1.073.22a4.99 4.99 0 0 0-.98.38l.236 1.334c.248-.1.487-.188.718-.261a6.79 6.79 0 0 1 1.293-.279c.197-.022.394-.034.592-.034.357-.006.714.028 1.064.101.254.051.495.152.71.296.175.123.313.293.397.49.09.223.133.461.127.701.005.33-.074.655-.228.947a2.19 2.19 0 0 1-.642.726c-.3.214-.634.374-.989.473a4.468 4.468 0 0 1-1.267.17h-.321l-.203 1.317h.54c.5-.007.998.036 1.488.127a3.08 3.08 0 0 1 1.039.389c.262.16.475.387.617.659.14.292.21.613.202.938.01.328-.054.654-.186.954a1.628 1.628 0 0 1-.566.66c-.292.19-.62.322-.963.388a6.55 6.55 0 0 1-1.377.127c-.169 0-.335-.006-.498-.017a7.927 7.927 0 0 1-1.081-.144 18.48 18.48 0 0 1-.651-.144l-.22 1.437c.248.045.487.087.718.126.232.04.46.074.684.102.226.028.445.047.66.059.214.012.422.017.625.017a8.32 8.32 0 0 0 1.605-.144c.45-.084.885-.232 1.293-.44a3.32 3.32 0 0 0 .946-.717c.254-.283.45-.613.574-.972.134-.394.2-.808.195-1.225a3.466 3.466 0 0 0-.187-1.166Z"/></svg>
